X: 234
T: Saturday Night
B: O'Neill's 234
N: "With spirit"
Z: 1997 by John Chambers <jc@trillian.mit.edu>
M: 6/8
L: 1/8
K:G
(G/B/) \
| de=f edB | AGG G2B | def gag | =fdB c2B/c/ |
| def gag | =fdB c2(B/c/) | de=f edB | AGG G2 ||
|| B \
| BGB gag | =fdB c2(B/c/) | de=f edB | BAG A2(B/c/) |
| def gag | =fdB c2(B/c/) | de=f edB | AGG G2 ||


